X:1
T:Billy Boy
M:4/4
L:1/8
K:C
B-c| d2 dd g2 Bc| d2 ded-cB-c| d2 dd g2 BB| B A3- A2| G2| BB BB B2 dB|\
B-A Bc d2 dd| g2 BB dd AB| G G3- G2||
